X: 1969
T: Arthur McBride
R: jig
M: 6/8
K: Gmajor
D|GAG GDE|GAG GAB|cec BdB|ABG E2D|
GDE GDE|GAG Bcd|edc B{c/B/}AG|~A3 {G/A/}G2||
A/B/|c2c cde|edd d2B|cdc BdB|ABG E D>D|
GDD EDD|GAG Bcd|edc B{c/B/}AG|~A3 G2||

